X:7
T:Jon's Re-entry
R:reel
C:Paul Cranford
O:Cape Breton Island
S:http://www.cranfordpub.com
D:The Lighthouse, Paul Cranford, 1996
B:The Lighthouse Collection, Paul Stewart Cranford
Z:psc, (re-formatted,updated 9/20/04)
N:Composed for Jon Goodman after returning to Halifax from a year in Belfast.
H:                                                    copyrights Cranford Publications, SOCAN
L:1/8
Q:333
M:C|
K:Edor
B|e2 Be defe|dBAB defd|e2 Be defe|dBAB e2 e:|
||g|f2 ed B2 AF|E2 BE defg|fded B2 eg|fedf e/e/e eg|
fded (3(Bcd) AF|E2 BE defg|abga fgeg|fedf e2e|]
